images/originals/facebook.svg

<?xml version="1.0" encoding="UTF-8" standalone="no"?>
<svg width="35px" height="35px" viewBox="0 0 35 35" version="1.1" xmlns="http://www.w3.org/2000/svg" xmlns:xlink="http://www.w3.org/1999/xlink">
    <!-- Generator: Sketch 3.6.1 (26313) - http://www.bohemiancoding.com/sketch -->
    <title>facebook</title>
    <desc>Created with Sketch.</desc>
    <defs></defs>
    <g id="Page-1" stroke="none" stroke-width="1" fill="none" fill-rule="evenodd">
        <g id="facebook">
            <g id="Page-1">
                <g id="facebook">
                    <g id="Page-1">
                        <g id="Facebook">
                            <path d="M35,17.5 C35,7.8350164 27.1649836,0 17.5,0 C7.8350164,0 0,7.8350164 0,17.5 C0,27.1649836 7.8350164,35 17.5,35 C27.1649836,35 35,27.1649836 35,17.5 Z" id="Oval-1" fill-opacity="0.01" fill="#FFFFFF"></path>
                            <path d="M18.8145197,28 L18.8145197,16.998712 L22.0687449,16.998712 L22.5,13.2076072 L18.8145197,13.2076072 L18.8200486,11.3101227 C18.8200486,10.3213442 18.9207209,9.7915341 20.4425538,9.7915341 L22.4769629,9.7915341 L22.4769629,6 L19.2222769,6 C15.3128757,6 13.9368678,7.8390937 13.9368678,10.9318709 L13.9368678,13.2080366 L11.5,13.2080366 L11.5,16.9991413 L13.9368678,16.9991413 L13.9368678,28 L18.8145197,28 L18.8145197,28 L18.8145197,28 Z" id="Oval-1-path" fill="#2BABEE"></path>
                        </g>
                    </g>
                </g>
            </g>
        </g>
    </g>
</svg>

<svg width="35" height="35" viewBox="0 0 35 35" xmlns="http://www.w3.org/2000/svg"><title>facebook</title><g fill="none" fill-rule="evenodd"><path d="M35 17.5C35 7.835 27.165 0 17.5 0S0 7.835 0 17.5 7.835 35 17.5 35 35 27.165 35 17.5z" fill-opacity=".01" fill="#FFF"/><path d="M18.815 28V17h3.254l.43-3.792h-3.685l.005-1.898c0-.99.1-1.518 1.623-1.518h2.034V6h-3.255c-3.91 0-5.285 1.84-5.285 4.932v2.276H11.5v3.79h2.437V28h4.878z" fill="#2BABEE"/></g></svg>
